img/icon/bathtub.svg

<svg height="512" viewBox="0 0 512 512" width="512" xmlns="http://www.w3.org/2000/svg"><path d="m471 256h-392v-144.768a30.5 30.5 0 0 1 61 0v9.048a53.075 53.075 0 0 0 -44 52.22v5c0 4.418 3.582 8.5 8 8.5h90c4.418 0 8-4.082 8-8.5v-5a53.068 53.068 0 0 0 -46-52.523v-8.745a46.5 46.5 0 0 0 -93 0v144.768h-22a7.776 7.776 0 0 0 -8 7.732v30a8.233 8.233 0 0 0 8 8.268h22v41.732a87.551 87.551 0 0 0 17.889 53.12l-11.152 11.148a23 23 0 1 0 32.526 32.527l15.374-15.24a87.6 87.6 0 0 0 33.363 6.713h210a87.6 87.6 0 0 0 33.363-6.709l15.374 15.309a23.02 23.02 0 0 0 32.526-32.585l-11.152-11.157a87.563 87.563 0 0 0 17.889-53.126v-41.732h22a8.233 8.233 0 0 0 8-8.268v-30a7.776 7.776 0 0 0 -8-7.732zm-285.12-86h-73.76c1.532-20 17.488-34 36.88-34s35.348 14 36.88 34zm-136.88 116v-14h14v14zm41.95 143.218a7 7 0 1 1 -9.9-9.9l10.637-10.636a88.567 88.567 0 0 0 11.141 8.657zm340 0a7 7 0 0 1 -9.9 0l-11.878-11.879a88.567 88.567 0 0 0 11.141-8.657l10.637 10.636a7.009 7.009 0 0 1 0 9.9zm2.05-85.486c0 39.7-32.3 72.268-72 72.268h-210c-39.7 0-72-32.566-72-72.268v-41.732h354zm30-57.732h-384v-14h384z"/></svg>

<?xml version="1.0"?>
<svg xmlns="http://www.w3.org/2000/svg" id="Layer_1" data-name="Layer 1" viewBox="0 0 512 512" width="512" height="512"><title>Bathtub</title><path d="M471,256H79V111.232a30.5,30.5,0,0,1,61,0v9.048A53.075,53.075,0,0,0,96,172.5v5c0,4.418,3.582,8.5,8,8.5h90c4.418,0,8-4.082,8-8.5v-5a53.068,53.068,0,0,0-46-52.523v-8.745a46.5,46.5,0,0,0-93,0V256H41a7.776,7.776,0,0,0-8,7.732v30A8.233,8.233,0,0,0,41,302H63v41.732a87.551,87.551,0,0,0,17.889,53.12L69.737,408a23,23,0,1,0,32.526,32.527l15.374-15.24A87.6,87.6,0,0,0,151,432H361a87.6,87.6,0,0,0,33.363-6.709L409.737,440.6a23.02,23.02,0,0,0,32.526-32.585l-11.152-11.157A87.563,87.563,0,0,0,449,343.732V302h22a8.233,8.233,0,0,0,8-8.268v-30A7.776,7.776,0,0,0,471,256ZM185.88,170H112.12c1.532-20,17.488-34,36.88-34S184.348,150,185.88,170ZM49,286V272H63v14ZM90.95,429.218a7,7,0,1,1-9.9-9.9l10.637-10.636a88.567,88.567,0,0,0,11.141,8.657Zm340,0a7,7,0,0,1-9.9,0l-11.878-11.879a88.567,88.567,0,0,0,11.141-8.657l10.637,10.636A7.009,7.009,0,0,1,430.95,429.218ZM433,343.732c0,39.7-32.3,72.268-72,72.268H151c-39.7,0-72-32.566-72-72.268V302H433ZM463,286H79V272H463Z"/></svg>
